icon-themes/breeze_svg/cmd/32/fullscreen.svg

<svg viewBox="0 0 32 32" xmlns="http://www.w3.org/2000/svg"><path d="m4 4v4l4-4zm20 0 4 4v-4zm-16 4v16h16v-16zm1 4h14v11h-14zm-5 12v4h4zm24 0-4 4h4z" fill="#4d4d4d"/></svg>

<svg xmlns="http://www.w3.org/2000/svg" viewBox="0 0 32 32">
 <path 
     style="fill:#4d4d4d" 
     d="M 4 4 L 4 8 L 8 4 L 4 4 z M 24 4 L 28 8 L 28 4 L 24 4 z M 8 8 L 8 24 L 24 24 L 24 8 L 8 8 z M 9 12 L 23 12 L 23 23 L 9 23 L 9 12 z M 4 24 L 4 28 L 8 28 L 4 24 z M 28 24 L 24 28 L 28 28 L 28 24 z "
     />
</svg>
